X: 134
T: A Chur Nan Gobhar As A 'Chreig
R: reel
M: 4/4
K: Dmajor
|:ABAF ABde|f2ef dBBd|ABAF ABde|1 fafe d2dB:|2 fafe d2de||
f2fa feed|effe dBBe|f2fa feed|effe d3e|
f2fa feed|effe dBBd|ABAF ABde|a3g fedB||

